lib/brands/logos/sketch.svg

<svg xmlns="http://www.w3.org/2000/svg" fill="none" aria-hidden="true" viewBox="0 0 211 56"><g id="Sketch"><g id="Group"><path id="Vector" fill="black" d="M77.0603 33.1822L77.023 32.6958H72.9965L73.0185 33.2415C73.2659 39.3253 77.3399 43.3536 84.5846 43.3536C91.4955 43.3536 96.1931 39.7388 96.1931 34.2701C96.1931 31.3112 95.1746 29.2183 93.2308 27.788C91.7378 26.6899 89.95 26.0696 86.9877 25.4223C86.5561 25.3275 86.124 25.2354 85.6912 25.146C80.3107 24.0106 78.6041 23.0243 78.6041 20.0874C78.6041 17.0506 81.0716 15.1153 85.21 15.1153C89.2365 15.1153 91.7819 17.5895 91.9005 21.4872L91.9158 21.9956H95.9135L95.9016 21.4601C95.7627 15.3847 91.7124 11.2972 85.1676 11.2972C78.7533 11.2972 74.5183 15.183 74.5183 20.2128C74.5183 23.1616 75.5368 25.2172 77.484 26.5899C78.9651 27.6338 80.6818 28.188 83.7102 28.8048C84.0201 28.868 84.3302 28.9302 84.6406 28.9912C87.5045 29.5606 88.7705 29.9131 89.9245 30.5893C91.3565 31.4265 92.0666 32.6229 92.0666 34.4786C92.0666 37.6985 89.3772 39.5355 84.6677 39.5355C80.1598 39.5355 77.3636 37.2595 77.0586 33.1805L77.0603 33.1822ZM104.633 10.7701V10.2465H100.633V42.7672H104.633V36.6308L108.844 32.5009L116.367 42.5571L116.522 42.7655H121.501L120.866 41.925L111.681 29.7437L120.151 21.2567L121.046 20.3586H115.607L115.455 20.5145L104.633 31.4858V10.7718V10.7701ZM142.022 32.9466H142.514L142.542 32.4551C142.565 32.0668 142.579 31.6781 142.585 31.2892C142.585 24.7054 138.253 19.8553 131.852 19.8553C125.464 19.8553 120.912 25.0189 120.912 31.54C120.912 38.2509 125.257 43.2672 131.893 43.2672C136.913 43.2672 140.79 40.271 142.187 35.7242L142.397 35.0446H138.236L138.114 35.3937C137.236 37.8815 134.86 39.5338 131.935 39.5338C128.111 39.5338 125.445 36.8901 124.964 32.9466H142.022V32.9466ZM125.086 29.464C125.76 25.9323 128.339 23.5886 131.852 23.5886C135.472 23.5886 137.97 25.8561 138.518 29.464H125.086ZM155.715 23.9242H156.237V20.3586H151.36V14.2747H147.359V20.3586H143.315V23.9276H147.359V36.4935C147.359 40.615 149.482 42.8486 153.382 42.8486C154.061 42.8486 154.649 42.8096 155.141 42.7401C155.446 42.6977 155.656 42.6537 155.771 42.6215L156.152 42.5147V38.7797L155.522 38.9169C155.336 38.9547 155.15 38.9875 154.963 39.0152C154.563 39.077 154.16 39.111 153.756 39.1169C152.048 39.1169 151.36 38.3085 151.36 36.2834V23.9259H155.715V23.9242ZM168.157 43.2672C173.696 43.2672 177.607 39.7388 178.59 34.7463L178.712 34.1193H174.677L174.573 34.5091C173.731 37.6951 171.448 39.5338 168.157 39.5338C164.051 39.5338 161.218 36.2715 161.218 31.5824C161.218 26.8559 164.046 23.5886 168.157 23.5886C171.448 23.5886 173.733 25.4256 174.573 28.6116L174.675 29.0014H178.712L178.59 28.3744C177.607 23.3836 173.696 19.8553 168.157 19.8553C161.724 19.8553 157.174 25.0545 157.174 31.5824C157.174 38.073 161.73 43.2672 168.157 43.2672V43.2672ZM186.08 10.7718V10.2482H182.079V42.7672H186.08V29.6115C186.08 25.7646 188.407 23.5073 191.937 23.5073C195.309 23.5073 197.002 25.4731 197.002 29.1929V42.7672H201.004V28.6032C201.004 23.348 197.77 19.8553 192.437 19.8553C189.693 19.8553 187.489 20.867 186.082 22.3193V10.7718H186.08Z"/><g id="Group_2"><path id="Vector_2" fill="#FDB300" d="M21.0542 6.09732L35.3375 4.58691L49.6208 6.09732L60.6786 20.9687L35.3375 50.4561L9.99646 20.9687L21.0542 6.09732Z"/><path id="Vector_3" fill="#EA6C00" d="M20.2613 20.9692L35.3375 50.4565L9.99646 20.9692H20.2613Z"/><path id="Vector_4" fill="#EA6C00" d="M50.4138 20.9692L35.336 50.4565L60.6771 20.9692H50.4138Z"/><path id="Vector_5" fill="#FDAD00" d="M20.2617 20.9692H50.4141L35.3379 50.4565L20.2617 20.9692Z"/><path id="Vector_6" fill="#FDD231" d="M35.3379 4.58691L21.0545 6.09732L20.2617 20.9687L35.3379 4.58691Z"/><path id="Vector_7" fill="#FDD231" d="M35.336 4.58691L49.6193 6.09732L50.4122 20.9687L35.336 4.58691Z"/><path id="Vector_8" fill="#FDAD00" d="M60.6769 20.969L49.6192 6.09753L50.4137 20.969H60.6769ZM9.99646 20.969L21.0542 6.09753L20.2613 20.969H9.99646Z"/><path id="Vector_9" fill="#FEEEB7" d="M35.3379 4.58691L20.2617 20.9687H50.4141L35.3379 4.58691Z"/></g></g></g></svg>

<svg xmlns="http://www.w3.org/2000/svg" fill="none" aria-hidden="true" viewBox="0 0 211 56"><path fill="#000" d="m77.06 33.182-.037-.486h-4.026l.022.546c.247 6.083 4.32 10.112 11.566 10.112 6.91 0 11.608-3.615 11.608-9.084 0-2.959-1.018-5.052-2.962-6.482-1.493-1.098-3.281-1.718-6.243-2.366a96.456 96.456 0 0 0-1.297-.276c-5.38-1.135-7.087-2.122-7.087-5.059 0-3.036 2.468-4.972 6.606-4.972 4.027 0 6.572 2.475 6.69 6.372l.016.509h3.998l-.012-.536c-.14-6.075-4.19-10.163-10.734-10.163-6.415 0-10.65 3.886-10.65 8.916 0 2.949 1.019 5.004 2.966 6.377 1.481 1.044 3.198 1.598 6.226 2.215l.93.186c2.864.57 4.13.922 5.284 1.598 1.432.838 2.143 2.034 2.143 3.89 0 3.22-2.69 5.056-7.4 5.056-4.507 0-7.303-2.275-7.608-6.354l.001.001Zm27.573-22.412v-.524h-4v32.521h4v-6.136l4.211-4.13 7.523 10.056.155.209h4.979l-.635-.841-9.185-12.181 8.47-8.487.895-.898h-5.439l-.152.155-10.822 10.972V10.77Zm37.389 22.177h.492l.028-.492c.023-.388.037-.777.043-1.166 0-6.584-4.332-11.434-10.733-11.434-6.388 0-10.94 5.164-10.94 11.685 0 6.71 4.345 11.727 10.981 11.727 5.02 0 8.897-2.996 10.294-7.543l.21-.68h-4.161l-.122.35c-.878 2.488-3.254 4.14-6.179 4.14-3.824 0-6.49-2.644-6.971-6.587h17.058Zm-16.936-3.483c.674-3.532 3.253-5.875 6.766-5.875 3.62 0 6.118 2.267 6.666 5.875h-13.432Zm30.629-5.54h.522V20.36h-4.877v-6.084h-4.001v6.084h-4.044v3.569h4.044v12.565c0 4.122 2.123 6.356 6.023 6.356.679 0 1.267-.04 1.759-.109a4.94 4.94 0 0 0 .63-.119l.381-.106V38.78l-.63.137c-.186.038-.372.07-.559.098-.4.062-.803.096-1.207.102-1.708 0-2.396-.808-2.396-2.834V23.926h4.355v-.002Zm12.442 19.343c5.539 0 9.45-3.528 10.433-8.52l.122-.628h-4.035l-.104.39c-.842 3.186-3.125 5.025-6.416 5.025-4.106 0-6.939-3.262-6.939-7.952 0-4.726 2.828-7.993 6.939-7.993 3.291 0 5.576 1.837 6.416 5.023l.102.39h4.037l-.122-.628c-.983-4.99-4.894-8.519-10.433-8.519-6.433 0-10.983 5.2-10.983 11.727 0 6.491 4.556 11.685 10.983 11.685Zm17.923-32.495v-.524h-4.001v32.52h4.001V29.61c0-3.846 2.327-6.104 5.857-6.104 3.372 0 5.065 1.966 5.065 5.686v13.574h4.002V28.603c0-5.255-3.234-8.748-8.567-8.748-2.744 0-4.948 1.012-6.355 2.464V10.772h-.002Z"/><path fill="#FDB300" d="m21.054 6.097 14.284-1.51 14.283 1.51L60.679 20.97 35.337 50.456 9.997 20.97 21.053 6.097Z"/><path fill="#EA6C00" d="m20.261 20.97 15.076 29.486L9.997 20.97H20.26Z"/><path fill="#EA6C00" d="M50.414 20.97 35.336 50.455 60.677 20.97H50.414Z"/><path fill="#FDAD00" d="M20.262 20.97h30.152L35.338 50.455 20.262 20.97Z"/><path fill="#FDD231" d="m35.338 4.587-14.284 1.51-.792 14.872L35.338 4.587Z"/><path fill="#FDD231" d="m35.336 4.587 14.283 1.51.793 14.872L35.336 4.587Z"/><path fill="#FDAD00" d="M60.677 20.969 49.619 6.098l.795 14.871h10.263Zm-50.68 0L21.053 6.098l-.793 14.871H9.996Z"/><path fill="#FEEEB7" d="M35.338 4.587 20.262 20.969h30.152L35.338 4.587Z"/></svg>
